frontend/svgs/tip_callout1.svg

<svg xmlns="http://www.w3.org/2000/svg" preserveAspectRatio="none" viewBox="-0.5 -0.5 141 133"><path class="svg_main_path" d="M22.5 117H5c-2.76 0-5-2.24-5-5V5c0-2.76 2.24-5 5-5h130c2.76 0 5 2.24 5 5v107c0 2.76-2.24 5-5 5H37.5c-2.96 7.77-11.71 13.6-22.5 15 3.89-2.85 6.68-8.43 7.5-15z" fill="#f7f7c6" stroke="#000" stroke-miterlimit="10" pointer-events="none"/></svg>

<svg xmlns="http://www.w3.org/2000/svg" xmlns:xlink="http://www.w3.org/1999/xlink" version="1.1" preserveAspectRatio="none" viewBox="-0.5 -0.5 141 133"><defs/><g><path class="svg_main_path" d="M 22.5 117 L 5 117 C 2.24 117 0 114.76 0 112 L 0 5 C 0 2.24 2.24 0 5 0 L 135 0 C 137.76 0 140 2.24 140 5 L 140 112 C 140 114.76 137.76 117 135 117 L 37.5 117 C 34.54 124.77 25.79 130.6 15 132 C 18.89 129.15 21.68 123.57 22.5 117 Z" fill="#f7f7c6" stroke="#000000" stroke-miterlimit="10" pointer-events="none"/></g></svg>
